X:1
T:Partition sans titre
C:Compositeur / Arrangeur
L:1/8
M:4/4
I:linebreak $
K:G
V:1 treble nm="Violon" snm="Vln."
V:1
"G" D2 DE G2 GA | BGBd cBAG |"D" FGFE DEFG | AFdF"Em" E2 GE |"G" D2 DE G2 GA | BGBd"C" efge | %6
"G" dcBA GFGA |1 B2 G2 G2 GE :|2 B2 G2 G2 d2 |:"G" g2 g2 gbag |"D" f2 f2 fagf |"Em" edef gfed | %12
 B2 e2 e2 ge |"G" dBGB d2 d2 |"Em" edef g2 fe |"G" dcBA GFGA |1 B2 G2 G2 d2 :|2 B2 G2 G2 GE |] %18
